actions/22x22-dark/lighttable.svg

<svg xmlns="http://www.w3.org/2000/svg" viewBox="0 0 22 22">
 <defs id="defs3051">
   <style type="text/css" id="current-color-scheme">
     .ColorScheme-Text {
       color:#f2f2f2;
     }
     </style>
 </defs>
   <path
      style="fill:currentColor;fill-opacity:1;stroke:none"
      d="m11 3c-4.41828 0-8 3.58172-8 8 0 2.0276.75669 3.87132 2 5.28125.2080306.267242.4988118.505096.71875.71875 1.40993 1.24331 3.25365 2 5.28125 2 4.41828 0 8-3.58172 8-8 0-2.0276-.75669-3.87132-2-5.28125-.11136-.12621-.22478-.25603-.34375-.375l-.375-.34375c-1.40993-1.24331-3.25365-2-5.28125-2zm4.949219 3.0507812c.697363.700308 1.238529 1.5403474 1.58789 2.4648438.00097.002.002907.0028594.003907.0058594.0066.019502.013111.0390337.019531.0585937.283874.6848394.357738 1.3830865.423828 2.0957029.005.10821.013672.214619.013672.324219v.042969c-.06847 3.545269-2.592827 6.180701-5.953125 6.871093-.12834.019201-.256209.040535-.386719.052735-.135849.01048-.271974.017001-.408203.019531-.083694.003-.16557.013672-.25.013672-.0149 0-.030022-.003906-.044922-.003906-.82235.01319-1.5967671-.192715-2.3574218-.431641-.0456-.017-.091599-.032781-.1367187-.050781-.1707978-.06694-.3388942-.140561-.5039063-.220703-.7060893-.338166-1.3504477-.792386-1.90625-1.34375z"
      class="ColorScheme-Text" />
</svg>

<svg xmlns="http://www.w3.org/2000/svg" viewBox="0 0 22 22">
  <defs id="defs3051">
    <style type="text/css" id="current-color-scheme">
      .ColorScheme-Text {
        color:#f2f2f2;
      }
      </style>
  </defs>
 <path 
     style="fill:currentColor;fill-opacity:1;stroke:none" 
     d="M 11 3 C 6.58172 3 3 6.58172 3 11 C 3 13.0276 3.75669 14.87132 5 16.28125 C 5.2080306 16.548492 5.4988118 16.786346 5.71875 17 C 7.12868 18.24331 8.9724 19 11 19 C 15.41828 19 19 15.41828 19 11 C 19 8.9724 18.24331 7.12868 17 5.71875 C 16.88864 5.59254 16.77522 5.46272 16.65625 5.34375 L 16.28125 5 C 14.87132 3.75669 13.0276 3 11 3 z M 15.949219 6.0507812 C 16.646582 6.7510892 17.187748 7.5911286 17.537109 8.515625 C 17.538079 8.517625 17.540016 8.5184844 17.541016 8.5214844 C 17.547616 8.5409864 17.554127 8.5605181 17.560547 8.5800781 C 17.844421 9.2649175 17.918285 9.9631646 17.984375 10.675781 C 17.989375 10.783991 17.998047 10.8904 17.998047 11 L 17.998047 11.042969 C 17.929577 14.588238 15.40522 17.22367 12.044922 17.914062 C 11.916582 17.933263 11.788713 17.954597 11.658203 17.966797 C 11.522354 17.977277 11.386229 17.983798 11.25 17.986328 C 11.166306 17.989328 11.08443 18 11 18 C 10.9851 18 10.969978 17.996094 10.955078 17.996094 C 10.132728 18.009284 9.3583109 17.803379 8.5976562 17.564453 C 8.5520562 17.547453 8.5060572 17.531672 8.4609375 17.513672 C 8.2901397 17.446732 8.1220433 17.373111 7.9570312 17.292969 C 7.2509419 16.954803 6.6065835 16.500583 6.0507812 15.949219 L 15.949219 6.0507812 z "
     class="ColorScheme-Text"
     />
</svg>
